dist/assets/img/advantages/shield 5.svg

<svg width="36" height="36" viewBox="0 0 36 36" fill="none" xmlns="http://www.w3.org/2000/svg">
<path d="M34.4561 27.0271C31.2341 23.8051 31.4454 24.0092 31.3547 23.9422L22.826 17.6453L26.1345 14.3371C28.7946 15.2849 31.8063 14.6296 33.8332 12.6027C36.0414 10.3945 36.6211 7.01845 35.2756 4.20194C34.962 3.54571 34.0923 3.39707 33.5786 3.91084L30.8512 6.63834C30.4401 7.04938 29.7714 7.04945 29.36 6.63834C28.9479 6.22624 28.9479 5.55939 29.36 5.14729L32.0876 2.41973C32.6019 1.90553 32.4523 1.03605 31.7965 0.722876C28.98 -0.622624 25.604 -0.0429676 23.3957 2.1652C21.3683 4.19259 20.7138 7.20442 21.6614 9.86378L17.8457 13.6791C17.0688 13.0749 18.0939 14.107 10.7769 6.3483L11.5439 5.58126C12.0291 5.09617 11.928 4.28392 11.3408 3.93166L5.69376 0.543368C4.21347 -0.344819 2.3272 -0.112647 1.10651 1.10805C-0.11412 2.32867 -0.346362 4.21509 0.541826 5.69531L3.93011 11.3425C4.28294 11.9307 5.09554 12.0297 5.57972 11.5455L6.30309 10.8221C13.5823 18.5407 12.6242 17.4923 13.1996 18.2322C13.2133 18.2497 13.2285 18.2651 13.2429 18.2816L9.85943 21.6648C7.20021 20.7172 4.18816 21.3718 2.16091 23.3991C-0.0473229 25.6074 -0.626979 28.9834 0.718591 31.7999C1.03226 32.4562 1.90174 32.6047 2.41551 32.091L5.143 29.3635C5.55426 28.9524 6.223 28.9525 6.63412 29.3635C7.04622 29.7756 7.04622 30.4424 6.63412 30.8545L3.90649 33.5821C3.39222 34.0963 3.54185 34.9658 4.19758 35.279C5.20994 35.7626 6.2943 35.9975 7.37107 35.9975C9.2899 35.9975 11.1838 35.2512 12.5984 33.8367C14.6258 31.8093 15.2803 28.7975 14.3327 26.138L17.2223 23.2487L23.9501 31.4246C24.0012 31.4866 23.8323 31.3138 26.8414 34.3228C27.9368 35.4182 29.3931 35.9861 30.8251 35.9861C31.8759 35.9861 32.9136 35.6801 33.7853 35.0524C36.4453 33.1366 36.7589 29.3297 34.4561 27.0271ZM7.09235 8.58557C6.68362 8.15224 5.99843 8.14464 5.57972 8.56342L5.04344 9.09963L2.34998 4.61038C1.96059 3.9614 2.06233 3.13431 2.59755 2.59909C3.13277 2.06381 3.95986 1.96213 4.60877 2.35152L9.09801 5.04506L8.56174 5.58119C8.1585 5.98443 8.14893 6.63524 8.54022 7.05009C16.9476 15.9649 15.6251 14.6234 16.3429 15.1817L14.7428 16.7817C14.1898 16.0705 15.4738 17.4729 7.09235 8.58557ZM12.3438 25.1447C12.0278 25.4607 11.9453 25.9415 12.138 26.3448C13.0991 28.3565 12.6848 30.768 11.1073 32.3455C10.0967 33.3562 8.74385 33.8894 7.3729 33.8893C7.12631 33.8893 6.87923 33.8721 6.63335 33.8372L8.1251 32.3454C9.36126 31.1093 9.36147 29.1085 8.1251 27.8722C6.89189 26.6389 4.8851 26.639 3.65189 27.8722L2.16014 29.364C1.93176 27.7514 2.45953 26.0825 3.65189 24.8901C5.22942 23.3125 7.64086 22.8985 9.65264 23.8594C10.0558 24.052 10.5365 23.9697 10.8527 23.6536L23.6502 10.8569C23.9662 10.541 24.0487 10.0602 23.8561 9.65692C22.895 7.64521 23.3093 5.23363 24.8868 3.65617C26.0793 2.46367 27.7481 1.93598 29.3606 2.16442L27.8688 3.65617C27.2714 4.25355 26.9423 5.04794 26.9423 5.89281C26.9423 6.73769 27.2714 7.53194 27.8688 8.12945C29.1021 9.36274 31.1088 9.36267 32.3421 8.12945L33.8338 6.6377C34.0622 8.25032 33.5344 9.91919 32.3421 11.1115C30.7645 12.6891 28.353 13.1033 26.3412 12.1423C25.9382 11.9497 25.4573 12.0321 25.1413 12.3481L12.3438 25.1447ZM18.7159 21.7551L21.3181 19.1531L23.9702 21.1112L20.8016 24.2798C18.6472 21.6618 18.7817 21.8196 18.7159 21.7551ZM32.5529 33.3413C31.3231 34.227 29.5086 34.0081 28.3323 32.8318L25.5457 30.0453L22.1477 25.9158L25.6856 22.3778L30.0387 25.5917L32.965 28.518C34.3025 29.8556 34.2166 32.1431 32.5529 33.3413Z" fill="white"/>
</svg>

<svg width="36" height="36" fill="none" xmlns="http://www.w3.org/2000/svg"><path d="M34.456 27.027c-3.222-3.222-3.01-3.018-3.101-3.085l-8.529-6.297 3.308-3.308a7.396 7.396 0 007.7-1.734 7.393 7.393 0 001.442-8.401 1.055 1.055 0 00-1.697-.291L30.85 6.638a1.054 1.054 0 11-1.491-1.491l2.728-2.727a1.055 1.055 0 00-.291-1.697 7.393 7.393 0 00-8.401 1.442 7.396 7.396 0 00-1.735 7.699l-3.815 3.815c-.777-.604.248.428-7.07-7.33l.768-.768a1.055 1.055 0 00-.203-1.65L5.694.544a3.75 3.75 0 00-4.587.565 3.75 3.75 0 00-.565 4.587l3.388 5.647a1.055 1.055 0 001.65.204l.723-.724c7.28 7.719 6.321 6.67 6.897 7.41.013.018.029.033.043.05l-3.384 3.383A7.396 7.396 0 002.161 23.4a7.393 7.393 0 00-1.442 8.4 1.055 1.055 0 001.697.292l2.727-2.728a1.054 1.054 0 111.491 1.491l-2.728 2.728a1.055 1.055 0 00.292 1.697 7.391 7.391 0 008.4-1.442 7.396 7.396 0 001.735-7.699l2.89-2.89 6.727 8.177c.051.062-.118-.111 2.891 2.898a5.659 5.659 0 003.984 1.663c1.05 0 2.089-.306 2.96-.934 2.66-1.915 2.974-5.722.671-8.025zM7.092 8.586a1.055 1.055 0 00-1.512-.023l-.537.537L2.35 4.61a1.644 1.644 0 01.248-2.01 1.644 1.644 0 012.01-.248l4.49 2.693-.536.536a1.054 1.054 0 00-.022 1.47c8.408 8.914 7.085 7.572 7.803 8.13l-1.6 1.6c-.553-.71.73.692-7.65-8.195zm5.252 16.559a1.054 1.054 0 00-.206 1.2 5.28 5.28 0 01-1.03 6 5.279 5.279 0 01-4.475 1.492l1.492-1.492a3.161 3.161 0 000-4.473 3.167 3.167 0 00-4.473 0L2.16 29.364a5.284 5.284 0 011.492-4.474 5.281 5.281 0 016-1.03c.404.192.885.11 1.2-.206L23.65 10.857c.316-.316.399-.797.206-1.2a5.28 5.28 0 011.03-6 5.284 5.284 0 014.475-1.493l-1.492 1.492a3.143 3.143 0 00-.927 2.237c0 .845.33 1.639.927 2.236a3.167 3.167 0 004.473 0l1.492-1.491a5.284 5.284 0 01-1.492 4.473 5.281 5.281 0 01-6 1.031 1.054 1.054 0 00-1.2.206L12.343 25.145zm6.372-3.39l2.602-2.602 2.652 1.958-3.168 3.169c-2.155-2.618-2.02-2.46-2.086-2.525zm13.837 11.586c-1.23.886-3.044.667-4.22-.51l-2.787-2.786-3.398-4.13 3.538-3.537 4.353 3.214 2.926 2.926a3.164 3.164 0 01-.412 4.823z" fill="#fff"/></svg>
